archive-alert.svg

<svg fill="currentColor" viewBox="0 0 24 24"><path d="M2 4h16v3H2zm1 4h14v12H3zm4.5 3c-.28 0-.5.22-.5.5V13h6v-1.5c0-.28-.22-.5-.5-.5zM20 13V7h2v6zm0 4v-2h2v2z"/></svg>

<svg  viewBox="0 0 24 24" fill="currentColor"><path  d="M2 4H18V7H2V4M3 8H17V20H3V8M7.5 11C7.22 11 7 11.22 7 11.5V13H13V11.5C13 11.22 12.78 11 12.5 11H7.5M20 13V7H22V13H20M20 17V15H22V17H20Z"/></svg>
